hero/outline/currency-yen.svg

<svg width="24" height="24" viewBox="0 0 24 24" fill="none" xmlns="http://www.w3.org/2000/svg">
<path d="M9 7.5L12 12M12 12L15 7.5M12 12V17.25M15 12H9M15 15H9M21 12C21 16.9706 16.9706 21 12 21C7.02944 21 3 16.9706 3 12C3 7.02944 7.02944 3 12 3C16.9706 3 21 7.02944 21 12Z" stroke="#0F172A" stroke-width="1.5" stroke-linecap="round" stroke-linejoin="round"/>
</svg>

<svg viewBox="0 0 24 24" xmlns="http://www.w3.org/2000/svg"><path fill="none" stroke="#000" stroke-linecap="round" stroke-linejoin="round" stroke-width="1.5" d="M9 7.5l3 4.5m0 0l3-4.5M12 12v5.25M15 12H9m6 3H9m12-3v0c0 4.97-4.03 9-9 9 -4.98 0-9-4.03-9-9v0c0-4.98 4.02-9 9-9 4.97 0 9 4.02 9 9Z"/></svg>
